wp-content/themes/cls/src/assets/images/icon-magnifying-glass.svg

<?xml version="1.0" encoding="UTF-8"?>
<svg width="17px" height="17px" viewBox="0 0 17 17" version="1.1" xmlns="http://www.w3.org/2000/svg" xmlns:xlink="http://www.w3.org/1999/xlink">
    <!-- Generator: Sketch 59 (86127) - https://sketch.com -->
    <title>icon-magnifying-glass</title>
    <desc>Created with Sketch.</desc>
    <defs>
        <path d="M7.16,0.603 C3.212,0.603 0,3.746 0,7.611 L0,7.611 C0,11.475 3.212,14.618 7.16,14.618 L7.16,14.618 C8.367,14.618 9.553,14.338 10.555,13.798 L10.555,13.798 C10.635,13.892 10.724,13.979 10.822,14.058 L10.822,14.058 L12.867,16.06 C13.382,16.627 14.175,16.867 14.927,16.686 L14.927,16.686 C15.68,16.505 16.267,15.929 16.452,15.193 L16.452,15.193 C16.638,14.457 16.393,13.68 15.812,13.176 L15.812,13.176 L13.767,11.175 C13.668,11.077 13.558,10.99 13.441,10.915 L13.441,10.915 C13.992,9.934 14.34,8.792 14.34,7.591 L14.34,7.591 C14.34,3.727 11.128,0.583 7.18,0.583 L7.18,0.583 L7.16,0.603 Z M2.025,7.631 C2.025,4.848 4.296,2.626 7.14,2.626 L7.14,2.626 L7.16,2.605 C10.003,2.605 12.274,4.827 12.274,7.611 L12.274,7.611 C12.274,8.932 11.783,10.153 10.923,11.054 L10.923,11.054 L10.862,11.115 C10.766,11.193 10.677,11.28 10.597,11.375 L10.597,11.375 C9.697,12.176 8.469,12.637 7.14,12.637 L7.14,12.637 C4.296,12.637 2.025,10.414 2.025,7.631 L2.025,7.631 Z" id="path-1"></path>
        <path d="M3.16,0.603 C2.248,0.603 1.374,0.771 0.57,1.077 L0.57,1.077 L0.57,3.293 C1.323,2.868 2.2,2.626 3.14,2.626 L3.14,2.626 L3.16,2.605 C6.003,2.605 8.274,4.827 8.274,7.611 L8.274,7.611 C8.274,8.932 7.783,10.153 6.923,11.054 L6.923,11.054 L6.862,11.115 C6.766,11.193 6.677,11.28 6.597,11.375 L6.597,11.375 C5.697,12.176 4.469,12.637 3.14,12.637 L3.14,12.637 C2.2,12.637 1.323,12.394 0.57,11.969 L0.57,11.969 L0.57,14.144 C1.374,14.45 2.248,14.618 3.16,14.618 L3.16,14.618 C4.367,14.618 5.553,14.338 6.555,13.798 L6.555,13.798 C6.635,13.892 6.724,13.979 6.822,14.058 L6.822,14.058 L8.867,16.06 C9.382,16.627 10.175,16.867 10.927,16.686 L10.927,16.686 C11.68,16.505 12.267,15.929 12.452,15.193 L12.452,15.193 C12.638,14.457 12.393,13.68 11.812,13.176 L11.812,13.176 L9.767,11.175 C9.668,11.077 9.558,10.99 9.441,10.915 L9.441,10.915 C9.992,9.934 10.34,8.792 10.34,7.591 L10.34,7.591 C10.34,3.727 7.128,0.583 3.18,0.583 L3.18,0.583 L3.16,0.603 Z" id="path-3"></path>
        <path d="M0.972,3.259 C1.783,4.144 2.274,5.317 2.274,6.611 L2.274,6.611 C2.274,7.907 1.801,9.107 0.972,10.003 L0.972,10.003 L0.972,13.205 L2.867,15.06 C3.382,15.627 4.175,15.867 4.927,15.686 L4.927,15.686 C5.68,15.505 6.267,14.929 6.452,14.193 L6.452,14.193 C6.638,13.457 6.393,12.68 5.812,12.176 L5.812,12.176 L3.767,10.175 C3.668,10.077 3.558,9.99 3.441,9.915 L3.441,9.915 C3.992,8.934 4.34,7.792 4.34,6.591 L4.34,6.591 C4.34,4.089 2.993,1.888 0.972,0.648 L0.972,0.648 L0.972,3.259 Z" id="path-5"></path>
    </defs>
    <g id="-" stroke="none" stroke-width="1" fill="none" fill-rule="evenodd">
        <g id="Template-#6A---News-&amp;-Events-Interior-Page" transform="translate(-934.000000, -1698.000000)">
            <g id="Group" transform="translate(0.000000, 1399.000000)">
                <g id="Footer" transform="translate(0.000000, 110.000000)">
                    <g id="Group-17">
                        <g id="Group-15" transform="translate(756.000000, 178.000000)">
                            <g id="icon-magnifying-glass" transform="translate(178.000000, 10.000000)">
                                <path d="M7.1601,1.5344 C3.2121,1.5344 0.0001,4.6784 0.0001,8.5424 C0.0001,12.4064 3.2121,15.5504 7.1601,15.5504 C8.3671,15.5504 9.5541,15.2694 10.5561,14.7284 C10.6361,14.8234 10.7241,14.9104 10.8211,14.9894 L12.8671,16.9914 C13.3821,17.5584 14.1751,17.7994 14.9281,17.6174 C15.6801,17.4354 16.2661,16.8604 16.4521,16.1244 C16.6391,15.3884 16.3921,14.6124 15.8121,14.1084 L13.7671,12.1064 C13.6681,12.0084 13.5571,11.9214 13.4401,11.8464 C13.9921,10.8654 14.3401,9.7234 14.3401,8.5224 C14.3401,4.6584 11.1291,1.5144 7.1811,1.5144 L7.1601,1.5344 Z M7.1601,3.5364 C10.0031,3.5364 12.2741,5.7594 12.2741,8.5424 C12.2741,9.8634 11.7831,11.0854 10.9241,11.9864 L10.8621,12.0464 C10.7651,12.1244 10.6771,12.2114 10.5971,12.3064 C9.6961,13.1074 8.4691,13.5674 7.1391,13.5674 C4.2961,13.5674 2.0251,11.3454 2.0251,8.5624 C2.0251,5.7794 4.2961,3.5564 7.1391,3.5564 L7.1601,3.5364 Z" id="Fill-1" fill="#8169B1"></path>
                                <g id="Group-6" transform="translate(0.000000, 0.931400)">
                                    <mask id="mask-2" fill="white">
                                        <use xlink:href="#path-1"></use>
                                    </mask>
                                    <g id="Clip-4"></g>
                                    <polygon id="Fill-3" fill="#8169B1" mask="url(#mask-2)" points="0 16.973 16.877 16.973 16.877 0.097 0 0.097"></polygon>
                                    <polygon id="Fill-5" fill="#8169B1" mask="url(#mask-2)" points="4.57 23 35.298 23 35.298 -5.931 4.57 -5.931"></polygon>
                                </g>
                                <g id="Group-9" transform="translate(4.000000, 0.931400)">
                                    <mask id="mask-4" fill="white">
                                        <use xlink:href="#path-3"></use>
                                    </mask>
                                    <g id="Clip-8"></g>
                                    <polygon id="Fill-7" fill="#8169B1" mask="url(#mask-4)" points="6.972 16.973 24.897 16.973 24.897 0.097 6.972 0.097"></polygon>
                                </g>
                                <g id="Group-12" transform="translate(10.000000, 1.931400)">
                                    <mask id="mask-6" fill="white">
                                        <use xlink:href="#path-5"></use>
                                    </mask>
                                    <g id="Clip-11"></g>
                                    <polygon id="Fill-10" fill="#8169B1" mask="url(#mask-6)" points="-5.43 21.773 24.912 21.773 24.912 -6.444 -5.43 -6.444"></polygon>
                                </g>
                            </g>
                        </g>
                    </g>
                </g>
            </g>
        </g>
    </g>
</svg>

<svg xmlns="http://www.w3.org/2000/svg" xmlns:xlink="http://www.w3.org/1999/xlink" viewBox="0 0 17 17">
  <defs>
    <path d="M7.16.603C3.212.603 0 3.746 0 7.611c0 3.864 3.212 7.007 7.16 7.007 1.207 0 2.393-.28 3.395-.82.08.094.169.181.267.26l2.045 2.002a2.116 2.116 0 002.06.626 2.061 2.061 0 001.525-1.493 2.013 2.013 0 00-.64-2.017l-2.045-2.001a1.99 1.99 0 00-.326-.26c.551-.981.899-2.123.899-3.324 0-3.864-3.212-7.008-7.16-7.008l-.02.02zM2.025 7.631c0-2.783 2.271-5.005 5.115-5.005l.02-.021c2.843 0 5.114 2.222 5.114 5.006 0 1.321-.491 2.542-1.351 3.443l-.061.061a1.973 1.973 0 00-.265.26c-.9.801-2.128 1.262-3.457 1.262-2.844 0-5.115-2.223-5.115-5.006z" id="a"/>
    <path d="M3.16.603a7.27 7.27 0 00-2.59.474v2.216a5.21 5.21 0 012.57-.667l.02-.021c2.843 0 5.114 2.222 5.114 5.006 0 1.321-.491 2.542-1.351 3.443l-.061.061a1.973 1.973 0 00-.265.26c-.9.801-2.128 1.262-3.457 1.262-.94 0-1.817-.243-2.57-.668v2.175a7.27 7.27 0 002.59.474c1.207 0 2.393-.28 3.395-.82.08.094.169.181.267.26l2.045 2.002a2.116 2.116 0 002.06.626 2.061 2.061 0 001.525-1.493 2.013 2.013 0 00-.64-2.017l-2.045-2.001a1.99 1.99 0 00-.326-.26c.551-.981.899-2.123.899-3.324 0-3.864-3.212-7.008-7.16-7.008l-.02.02z" id="c"/>
    <path d="M.972 3.259a4.936 4.936 0 011.302 3.352c0 1.296-.473 2.496-1.302 3.392v3.202l1.895 1.855a2.116 2.116 0 002.06.626 2.061 2.061 0 001.525-1.493 2.013 2.013 0 00-.64-2.017l-2.045-2.001a1.99 1.99 0 00-.326-.26c.551-.981.899-2.123.899-3.324C4.34 4.089 2.993 1.888.972.648v2.611z" id="e"/>
  </defs>
  <g fill="none" fill-rule="evenodd">
    <path d="M7.16.534C3.212.534 0 3.678 0 7.542s3.212 7.008 7.16 7.008c1.207 0 2.394-.28 3.396-.822.08.095.168.182.265.261l2.046 2.002a2.115 2.115 0 002.061.626 2.064 2.064 0 001.524-1.493 2.011 2.011 0 00-.64-2.016l-2.045-2.002a1.997 1.997 0 00-.327-.26c.552-.98.9-2.123.9-3.324 0-3.864-3.21-7.008-7.159-7.008l-.02.02zm0 2.002c2.843 0 5.114 2.223 5.114 5.006 0 1.321-.49 2.543-1.35 3.444l-.062.06a1.916 1.916 0 00-.265.26c-.9.801-2.128 1.261-3.458 1.261-2.843 0-5.114-2.222-5.114-5.005S4.296 2.556 7.14 2.556l.021-.02z" fill="#8169B1"/>
    <g transform="translate(0 -.069)">
      <mask id="b" fill="#fff">
        <use xlink:href="#a"/>
      </mask>
      <path fill="#8169B1" mask="url(#b)" d="M0 16.973h16.877V.097H0z"/>
      <path fill="#8169B1" mask="url(#b)" d="M4.57 23h30.728V-5.931H4.57z"/>
    </g>
    <g transform="translate(4 -.069)">
      <mask id="d" fill="#fff">
        <use xlink:href="#c"/>
      </mask>
      <path fill="#8169B1" mask="url(#d)" d="M6.972 16.973h17.925V.097H6.972z"/>
    </g>
    <g transform="translate(10 .931)">
      <mask id="f" fill="#fff">
        <use xlink:href="#e"/>
      </mask>
      <path fill="#8169B1" mask="url(#f)" d="M-5.43 21.773h30.342V-6.444H-5.43z"/>
    </g>
  </g>
</svg>
